final-project/public/shopping-cart-solid.svg

<svg aria-hidden="true" focusable="false" data-prefix="fas" data-icon="shopping-cart" class="svg-inline--fa fa-shopping-cart fa-w-18" role="img" xmlns="http://www.w3.org/2000/svg" viewBox="0 0 576 512"><path fill="currentColor" d="M528.12 301.319l47.273-208C578.806 78.301 567.391 64 551.99 64H159.208l-9.166-44.81C147.758 8.021 137.93 0 126.529 0H24C10.745 0 0 10.745 0 24v16c0 13.255 10.745 24 24 24h69.883l70.248 343.435C147.325 417.1 136 435.222 136 456c0 30.928 25.072 56 56 56s56-25.072 56-56c0-15.674-6.447-29.835-16.824-40h209.647C430.447 426.165 424 440.326 424 456c0 30.928 25.072 56 56 56s56-25.072 56-56c0-22.172-12.888-41.332-31.579-50.405l5.517-24.276c3.413-15.018-8.002-29.319-23.403-29.319H218.117l-6.545-32h293.145c11.206 0 20.92-7.754 23.403-18.681z"></path></svg>

<svg width="576" height="512" viewBox="0 0 576 512" fill="none" xmlns="http://www.w3.org/2000/svg">
<path d="M528.12 301.319L575.393 93.319C578.806 78.301 567.391 64 551.99 64H159.208L150.042 19.19C147.758 8.021 137.93 0 126.529 0H24C10.745 0 0 10.745 0 24V40C0 53.255 10.745 64 24 64H93.883L164.131 407.435C147.325 417.1 136 435.222 136 456C136 486.928 161.072 512 192 512C222.928 512 248 486.928 248 456C248 440.326 241.553 426.165 231.176 416H440.823C430.447 426.165 424 440.326 424 456C424 486.928 449.072 512 480 512C510.928 512 536 486.928 536 456C536 433.828 523.112 414.668 504.421 405.595L509.938 381.319C513.351 366.301 501.936 352 486.535 352H218.117L211.572 320H504.717C515.923 320 525.637 312.246 528.12 301.319Z" fill="white"/>
</svg>
